SVG_Azure_All/Enterprise Certification Authority Subordinate.svg

<?xml version="1.0" encoding="UTF-8" standalone="no"?>
<!-- Generated by Microsoft Visio, SVG Export Enterprise Certification Authority Subordinate.svg Page-1 -->

<svg
   xmlns:dc="http://purl.org/dc/elements/1.1/"
   xmlns:cc="http://creativecommons.org/ns#"
   xmlns:rdf="http://www.w3.org/1999/02/22-rdf-syntax-ns#"
   xmlns:svg="http://www.w3.org/2000/svg"
   xmlns="http://www.w3.org/2000/svg"
   xmlns:sodipodi="http://sodipodi.sourceforge.net/DTD/sodipodi-0.dtd"
   xmlns:inkscape="http://www.inkscape.org/namespaces/inkscape"
   width="0.66927385in"
   height="0.78732818in"
   viewBox="0 0 48.187963 56.687664"
   xml:space="preserve"
   class="st12"
   version="1.1"
   id="svg159"
   sodipodi:docname="Enterprise Certification Authority Subordinate.svg"
   style="font-size:12px;overflow:visible;color-interpolation-filters:sRGB;fill:none;fill-rule:evenodd;stroke-linecap:square;stroke-miterlimit:3"
   inkscape:version="0.92.5 (2060ec1f9f, 2020-04-08)"><metadata
   id="metadata163"><rdf:RDF><cc:Work
       rdf:about=""><dc:format>image/svg+xml</dc:format><dc:type
         rdf:resource="http://purl.org/dc/dcmitype/StillImage" /></cc:Work></rdf:RDF></metadata><sodipodi:namedview
   pagecolor="#ffffff"
   bordercolor="#666666"
   borderopacity="1"
   objecttolerance="10"
   gridtolerance="10"
   guidetolerance="10"
   inkscape:pageopacity="0"
   inkscape:pageshadow="2"
   inkscape:window-width="640"
   inkscape:window-height="480"
   id="namedview161"
   showgrid="false"
   inkscape:zoom="1.4060796"
   inkscape:cx="30.819634"
   inkscape:cy="37.108474"
   inkscape:window-x="0"
   inkscape:window-y="0"
   inkscape:window-maximized="0"
   inkscape:current-layer="svg159" />
	<style
   type="text/css"
   id="style2">
	<![CDATA[
		.st1 {fill:url(#grad0-12);stroke:none;stroke-linecap:butt;stroke-width:35.9596}
		.st2 {fill:#003067;stroke:none;stroke-linecap:butt;stroke-width:35.9596}
		.st3 {fill:#50e6ff;stroke:none;stroke-linecap:butt;stroke-width:35.9596}
		.st4 {fill:#773adc;stroke:none;stroke-linecap:butt;stroke-width:33.9999}
		.st5 {fill:#f9f9f9;fill-opacity:0.5;stroke:none;stroke-linecap:butt;stroke-width:33.9999}
		.st6 {fill:url(#grad0-37);stroke:none;stroke-linecap:butt;stroke-width:33.9999}
		.st7 {fill:#ffffff;stroke:none;stroke-linecap:butt;stroke-width:33.9999}
		.st8 {fill:#0059d1;stroke:none;stroke-linecap:butt;stroke-width:33.9999}
		.st9 {fill:#1b1bb3;stroke:none;stroke-linecap:butt;stroke-width:33.9999}
		.st10 {fill:#2323e6;stroke:none;stroke-linecap:butt;stroke-width:33.9999}
		.st11 {fill:#4db3ff;stroke:none;stroke-linecap:butt;stroke-width:33.9999}
		.st12 {fill:none;fill-rule:evenodd;font-size:12px;overflow:visible;stroke-linecap:square;stroke-miterlimit:3}
	]]>
	</style>

	<defs
   id="Patterns_And_Gradients">
		<linearGradient
   id="grad0-12"
   x1="-0.00018462664"
   y1="55.219774"
   x2="41.430253"
   y2="55.219774"
   gradientTransform="scale(0.76779641,1.3024286)"
   gradientUnits="userSpaceOnUse">
			<stop
   offset="0"
   stop-color="#949494"
   stop-opacity="1"
   id="stop4" />
			<stop
   offset="0.53"
   stop-color="#a2a2a2"
   stop-opacity="1"
   id="stop6" />
			<stop
   offset="1"
   stop-color="#b3b3b3"
   stop-opacity="1"
   id="stop8" />
		</linearGradient>
		<linearGradient
   id="grad0-37"
   x1="0"
   y1="130.81813"
   x2="20.600541"
   y2="130.81813"
   gradientTransform="scale(1.202881,0.8313374)"
   gradientUnits="userSpaceOnUse">
			<stop
   offset="0"
   stop-color="#0879e2"
   stop-opacity="1"
   id="stop11" />
			<stop
   offset="0.325"
   stop-color="#0a7de4"
   stop-opacity="1"
   id="stop13" />
			<stop
   offset="0.62"
   stop-color="#1088eb"
   stop-opacity="1"
   id="stop15" />
			<stop
   offset="0.91"
   stop-color="#199af6"
   stop-opacity="1"
   id="stop17" />
			<stop
   offset="1"
   stop-color="#1da2fa"
   stop-opacity="1"
   id="stop19" />
		</linearGradient>
	</defs>
	<g
   id="g157"
   transform="translate(-35.959658,-34.084861)">
		<title
   id="title23">Page-1</title>
		<g
   id="group5355-1"
   transform="translate(35.9598,-35.1075)">
			<title
   id="title25">Enterprise Certification Authority Subordinate</title>
			<g
   id="group5356-2">
				<title
   id="title27">Page-1</title>
				<g
   id="group5357-3">
					<title
   id="title29">Sheet.5357</title>
					<g
   id="group5358-4">
						<title
   id="title31">Sheet.5358</title>
						<g
   id="group5359-5"
   transform="translate(0,-0.852148)">
							<title
   id="title33">Sheet.5359</title>
							<g
   id="group5360-6">
								<title
   id="title35">Icon-databases-136.149</title>
								<g
   id="group5361-7">
									<title
   id="title37">path4-5</title>
									<g
   id="group5362-8">
										<title
   id="title39">Sheet.5362</title>
										<g
   id="shape5363-9">
											<title
   id="title41">Sheet.5363</title>
											<path
   d="m 31.81,124.05 a 1.87883,1.87215 -180 0 1 -1.84,1.83 H 1.84 A 1.84644,1.83986 -180 0 1 0,124.05 v -50.3 a 1.81404,1.80759 -180 0 1 1.84,-1.83 h 28.13 a 1.84644,1.83986 -180 0 1 1.84,1.83 z"
   class="st1"
   id="path43"
   inkscape:connector-curvature="0"
   style="fill:url(#grad0-12);stroke:none;stroke-width:35.95959854;stroke-linecap:butt" />
										</g>
									</g>
								</g>
								<g
   id="group5364-13"
   transform="translate(4.66468,-31.6004)">
									<title
   id="title48">path6-7</title>
									<g
   id="group5365-14">
										<title
   id="title50">Sheet.5365</title>
										<g
   id="shape5366-15">
											<title
   id="title52">Sheet.5366</title>
											<path
   d="m 0,122.44 a 3.46611,3.45379 -180 0 1 3.44,-3.43 H 19.3 a 3.46611,3.45379 -180 0 1 3.57,3.43 3.46611,3.45379 -180 0 1 -3.57,3.44 H 3.44 A 3.46611,3.45379 -180 0 1 0,122.44 Z m 0,-10.22 a 3.46611,3.45379 -180 0 1 3.44,-3.44 H 19.3 a 3.46611,3.45379 -180 0 1 3.57,3.44 3.46611,3.45379 -180 0 1 -3.57,3.44 H 3.44 A 3.46611,3.45379 -180 0 1 0,112.22 Z"
   class="st2"
   id="path54"
   inkscape:connector-curvature="0"
   style="fill:#003067;stroke:none;stroke-width:35.95959854;stroke-linecap:butt" />
										</g>
									</g>
								</g>
								<g
   id="group5367-17"
   transform="translate(5.96042,-42.9286)">
									<title
   id="title59">circle8-5</title>
									<g
   id="group5368-18">
										<title
   id="title61">Sheet.5368</title>
										<g
   id="shape5369-19">
											<title
   id="title63">Sheet.5369</title>
											<ellipse
   cx="2.33233"
   cy="123.558"
   rx="2.33233"
   ry="2.3240399"
   class="st3"
   id="ellipse65"
   style="fill:#50e6ff;stroke:none;stroke-width:35.95959854;stroke-linecap:butt" />
										</g>
									</g>
								</g>
								<g
   id="group5370-21"
   transform="translate(5.96042,-32.7287)">
									<title
   id="title70">circle10-2</title>
									<g
   id="group5371-22">
										<title
   id="title72">Sheet.5371</title>
										<g
   id="shape5372-23">
											<title
   id="title74">Sheet.5372</title>
											<ellipse
   cx="2.33233"
   cy="123.558"
   rx="2.33233"
   ry="2.3240399"
   class="st3"
   id="ellipse76"
   style="fill:#50e6ff;stroke:none;stroke-width:35.95959854;stroke-linecap:butt" />
										</g>
									</g>
								</g>
							</g>
						</g>
						<g
   id="group5373-25"
   transform="translate(15.3788)">
							<title
   id="title83">Sheet.5373</title>
							<g
   id="group5374-26"
   transform="translate(0.0190229)">
								<title
   id="title85">Sheet.5374</title>
								<g
   id="shape5375-27">
									<title
   id="title87">Sheet.5375</title>
									<path
   d="M 16.4,96.81 0,119.33 l 16.4,6.55 16.39,-6.55 z"
   class="st4"
   id="path89"
   inkscape:connector-curvature="0"
   style="fill:#773adc;stroke:none;stroke-width:33.99990082;stroke-linecap:butt" />
								</g>
							</g>
							<g
   id="group5376-29">
								<title
   id="title93">Sheet.5376</title>
								<g
   id="shape5377-30">
									<title
   id="title95">Sheet.5377</title>
									<path
   d="M 16.4,96.81 0,119.33 l 16.4,6.55 z"
   class="st5"
   id="path97"
   inkscape:connector-curvature="0"
   style="fill:#f9f9f9;fill-opacity:0.5;stroke:none;stroke-width:33.99990082;stroke-linecap:butt" />
								</g>
							</g>
						</g>
					</g>
					<g
   id="group5378-32"
   transform="translate(23.2552,-34.575)">
						<title
   id="title103">g14</title>
						<g
   id="group5379-33"
   transform="translate(0,-4.98692)">
							<title
   id="title105">rect2</title>
							<g
   id="shape5380-34">
								<title
   id="title107">Sheet.5380</title>
								<path
   d="m 0,125.07 a 0.826028,0.806021 0 0 0 0.82601,0.806 L 23.95,125.88 a 0.826028,0.806021 0 0 0 0.82601,-0.806 L 24.78,109.56 a 0.826028,0.806021 0 0 0 -0.82601,-0.806 L 0.83,108.76 a 0.826028,0.806021 0 0 0 -0.82601,0.806 z"
   class="st6"
   id="path109"
   inkscape:connector-curvature="0"
   style="fill:url(#grad0-37);stroke:none;stroke-width:33.99990082;stroke-linecap:butt" />
							</g>
						</g>
						<g
   id="group5381-38"
   transform="translate(1.44575,-6.49497)">
							<title
   id="title113">rect4</title>
							<g
   id="shape5382-39">
								<title
   id="title115">Sheet.5382</title>
								<path
   d="m 0,125.48 a 0.413014,0.403011 0 0 0 0.413005,0.403 L 21.47,125.88 a 0.413014,0.403011 0 0 0 0.413005,-0.403 L 21.89,112.17 a 0.413014,0.403011 0 0 0 -0.413005,-0.403 L 0.41,111.77 a 0.413014,0.403011 0 0 0 -0.413005,0.403 z"
   class="st7"
   id="path117"
   inkscape:connector-curvature="0"
   style="fill:#ffffff;stroke:none;stroke-width:33.99990082;stroke-linecap:butt" />
							</g>
						</g>
						<g
   id="group5383-41"
   transform="translate(4.7662,-10.2004)">
							<title
   id="title121">path6</title>
							<g
   id="shape5384-42">
								<title
   id="title123">Sheet.5384</title>
								<path
   d="m 15.81,125.49 a 0.399237,0.389569 -180 0 1 -0.399237,0.38957 L 6.47,125.88 a 0.399237,0.389569 -180 1 1 0,-0.77779 l 8.94,-0.002 a 0.397861,0.388224 -180 0 1 0.399237,0.38822 z m 0,-2.41 a 0.397861,0.388224 -180 0 1 -0.399237,0.38822 L 6.47,123.47 a 0.399237,0.389569 -180 1 1 0,-0.77779 l 8.94,-0.002 a 0.399237,0.389569 -180 0 1 0.399237,0.38957 z m 0,-3.51 a 0.399237,0.389569 -180 0 1 -0.399237,0.38957 L 0.42,119.96 a 0.399237,0.389569 -180 1 1 0,-0.77779 l 14.99,-0.002 a 0.397861,0.388224 -180 0 1 0.399237,0.38822 z"
   class="st8"
   id="path125"
   inkscape:connector-curvature="0"
   style="fill:#0059d1;stroke:none;stroke-width:33.99990082;stroke-linecap:butt" />
							</g>
						</g>
						<g
   id="group5385-44"
   transform="translate(2.1302)">
							<title
   id="title129">path8</title>
							<g
   id="shape5386-45">
								<title
   id="title131">Sheet.5386</title>
								<path
   d="m 4.93,119.8 a 3.47613,3.39192 -180 0 1 -4.64,0 L 0,125.43 a 0.458435,0.447331 0 0 0 0.784709,0.33583 L 2.57,123.99 l 1.81,1.79 a 0.458435,0.447331 0 0 0 0.790216,-0.32643 z"
   class="st9"
   id="path133"
   inkscape:connector-curvature="0"
   style="fill:#1b1bb3;stroke:none;stroke-width:33.99990082;stroke-linecap:butt" />
							</g>
						</g>
						<g
   id="group5387-47"
   transform="translate(0.642006,-4.90713)">
							<title
   id="title137">ellipse10</title>
							<g
   id="shape5388-48">
								<title
   id="title139">Sheet.5388</title>
								<ellipse
   cx="4.1479402"
   cy="121.821"
   rx="4.1479402"
   ry="4.0609102"
   class="st10"
   id="ellipse141"
   style="fill:#2323e6;stroke:none;stroke-width:33.99990082;stroke-linecap:butt" />
							</g>
						</g>
						<g
   id="group5389-50"
   transform="translate(1.64285,-5.88796)">
							<title
   id="title145">ellipse12</title>
							<g
   id="shape5390-51">
								<title
   id="title147">Sheet.5390</title>
								<ellipse
   cx="3.14709"
   cy="122.802"
   rx="3.14709"
   ry="3.0802801"
   class="st11"
   id="ellipse149"
   style="fill:#4db3ff;stroke:none;stroke-width:33.99990082;stroke-linecap:butt" />
							</g>
						</g>
					</g>
				</g>
			</g>
		</g>
	</g>
</svg>

<?xml version="1.0" encoding="UTF-8" standalone="no"?>
<!DOCTYPE svg PUBLIC "-//W3C//DTD SVG 1.1//EN" "http://www.w3.org/Graphics/SVG/1.1/DTD/svg11.dtd">
<!-- Generated by Microsoft Visio, SVG Export Enterprise Certification Authority Subordinate.svg Page-1 -->
<svg xmlns="http://www.w3.org/2000/svg" xmlns:xlink="http://www.w3.org/1999/xlink" xmlns:ev="http://www.w3.org/2001/xml-events"
		width="1.64095in" height="1.74836in" viewBox="0 0 118.149 125.882" xml:space="preserve" color-interpolation-filters="sRGB"
		class="st12">
	<style type="text/css">
	<![CDATA[
		.st1 {fill:url(#grad0-12);stroke:none;stroke-linecap:butt;stroke-width:35.9596}
		.st2 {fill:#003067;stroke:none;stroke-linecap:butt;stroke-width:35.9596}
		.st3 {fill:#50e6ff;stroke:none;stroke-linecap:butt;stroke-width:35.9596}
		.st4 {fill:#773adc;stroke:none;stroke-linecap:butt;stroke-width:33.9999}
		.st5 {fill:#f9f9f9;fill-opacity:0.5;stroke:none;stroke-linecap:butt;stroke-width:33.9999}
		.st6 {fill:url(#grad0-37);stroke:none;stroke-linecap:butt;stroke-width:33.9999}
		.st7 {fill:#ffffff;stroke:none;stroke-linecap:butt;stroke-width:33.9999}
		.st8 {fill:#0059d1;stroke:none;stroke-linecap:butt;stroke-width:33.9999}
		.st9 {fill:#1b1bb3;stroke:none;stroke-linecap:butt;stroke-width:33.9999}
		.st10 {fill:#2323e6;stroke:none;stroke-linecap:butt;stroke-width:33.9999}
		.st11 {fill:#4db3ff;stroke:none;stroke-linecap:butt;stroke-width:33.9999}
		.st12 {fill:none;fill-rule:evenodd;font-size:12px;overflow:visible;stroke-linecap:square;stroke-miterlimit:3}
	]]>
	</style>

	<defs id="Patterns_And_Gradients">
		<linearGradient id="grad0-12" x1="0" y1="0" x2="1" y2="0" gradientTransform="rotate(-90 0.5 0.5)">
			<stop offset="0" stop-color="#949494" stop-opacity="1"/>
			<stop offset="0.53" stop-color="#a2a2a2" stop-opacity="1"/>
			<stop offset="1" stop-color="#b3b3b3" stop-opacity="1"/>
		</linearGradient>
		<linearGradient id="grad0-37" x1="0" y1="0" x2="1" y2="0" gradientTransform="rotate(-90 0.5 0.5)">
			<stop offset="0" stop-color="#0879e2" stop-opacity="1"/>
			<stop offset="0.325" stop-color="#0a7de4" stop-opacity="1"/>
			<stop offset="0.62" stop-color="#1088eb" stop-opacity="1"/>
			<stop offset="0.91" stop-color="#199af6" stop-opacity="1"/>
			<stop offset="1" stop-color="#1da2fa" stop-opacity="1"/>
		</linearGradient>
	</defs>
	<g>
		<title>Page-1</title>
		<g id="group5249-1" transform="translate(35.9598,-35.1075)">
			<title>Enterprise Certification Authority Subordinate</title>
			<g id="group5250-2">
				<title>Page-1</title>
				<g id="group5251-3">
					<title>Sheet.5251</title>
					<g id="group5252-4">
						<title>Sheet.5252</title>
						<g id="group5253-5" transform="translate(0,-0.852148)">
							<title>Sheet.5253</title>
							<g id="group5254-6">
								<title>Icon-databases-136.149</title>
								<g id="group5255-7">
									<title>path4-5</title>
									<g id="group5256-8">
										<title>Sheet.5256</title>
										<g id="shape5257-9">
											<title>Sheet.5257</title>
											<path d="M31.81 124.05 A1.87883 1.87215 180 0 1 29.97 125.88 L1.84 125.88 A1.84644 1.83986
														 180 0 1 0 124.05 L0 73.75 A1.81404 1.80759 180 0 1 1.84 71.92 L29.97 71.92
														 A1.84644 1.83986 180 0 1 31.81 73.75 L31.81 124.05 Z" class="st1"/>
										</g>
									</g>
								</g>
								<g id="group5258-13" transform="translate(4.66468,-31.6004)">
									<title>path6-7</title>
									<g id="group5259-14">
										<title>Sheet.5259</title>
										<g id="shape5260-15">
											<title>Sheet.5260</title>
											<path d="M-0 122.44 A3.46611 3.45379 180 0 1 3.44 119.01 L19.3 119.01 A3.46611 3.45379
														 180 0 1 22.87 122.44 A3.46611 3.45379 180 0 1 19.3 125.88 L3.44 125.88 A3.46611
														 3.45379 180 0 1 0 122.44 ZM-0 112.22 A3.46611 3.45379 180 0 1 3.44 108.78
														 L19.3 108.78 A3.46611 3.45379 180 0 1 22.87 112.22 A3.46611 3.45379 180
														 0 1 19.3 115.66 L3.44 115.66 A3.46611 3.45379 180 0 1 -0 112.22 Z"
													class="st2"/>
										</g>
									</g>
								</g>
								<g id="group5261-17" transform="translate(5.96042,-42.9286)">
									<title>circle8-5</title>
									<g id="group5262-18">
										<title>Sheet.5262</title>
										<g id="shape5263-19">
											<title>Sheet.5263</title>
											<ellipse cx="2.33233" cy="123.558" rx="2.33233" ry="2.32404" class="st3"/>
										</g>
									</g>
								</g>
								<g id="group5264-21" transform="translate(5.96042,-32.7287)">
									<title>circle10-2</title>
									<g id="group5265-22">
										<title>Sheet.5265</title>
										<g id="shape5266-23">
											<title>Sheet.5266</title>
											<ellipse cx="2.33233" cy="123.558" rx="2.33233" ry="2.32404" class="st3"/>
										</g>
									</g>
								</g>
							</g>
						</g>
						<g id="group5267-25" transform="translate(15.3788,0)">
							<title>Sheet.5267</title>
							<g id="group5268-26" transform="translate(0.0190229,0)">
								<title>Sheet.5268</title>
								<g id="shape5269-27">
									<title>Sheet.5269</title>
									<path d="M16.4 96.81 L0 119.33 L16.4 125.88 L32.79 119.33 L16.4 96.81 Z" class="st4"/>
								</g>
							</g>
							<g id="group5270-29">
								<title>Sheet.5270</title>
								<g id="shape5271-30">
									<title>Sheet.5271</title>
									<path d="M16.4 96.81 L0 119.33 L16.4 125.88 L16.4 96.81 Z" class="st5"/>
								</g>
							</g>
						</g>
					</g>
					<g id="group5272-32" transform="translate(23.2552,-34.575)">
						<title>g14</title>
						<g id="group5273-33" transform="translate(0,-4.98692)">
							<title>rect2</title>
							<g id="shape5274-34">
								<title>Sheet.5274</title>
								<path d="M0 125.07 a0.826028 0.806021 -0 0 0 0.82601 0.806003 L23.95 125.88 a0.826028 0.806021 -0
											 0 0 0.82601 -0.806003 L24.78 109.56 a0.826028 0.806021 -0 0 0 -0.82601 -0.806003 L0.83
											 108.76 a0.826028 0.806021 -0 0 0 -0.82601 0.806003 L0 125.07 Z" class="st6"/>
							</g>
						</g>
						<g id="group5275-38" transform="translate(1.44575,-6.49497)">
							<title>rect4</title>
							<g id="shape5276-39">
								<title>Sheet.5276</title>
								<path d="M0 125.48 a0.413014 0.403011 -0 0 0 0.413005 0.403002 L21.47 125.88 a0.413014 0.403011 -0
											 0 0 0.413005 -0.403002 L21.89 112.17 a0.413014 0.403011 -0 0 0 -0.413005 -0.403002 L0.41
											 111.77 a0.413014 0.403011 -0 0 0 -0.413005 0.403002 L0 125.48 Z" class="st7"/>
							</g>
						</g>
						<g id="group5277-41" transform="translate(4.7662,-10.2004)">
							<title>path6</title>
							<g id="shape5278-42">
								<title>Sheet.5278</title>
								<path d="M15.81 125.49 a0.399237 0.389569 180 0 1 -0.399237 0.389569 L6.47 125.88 a0.399237 0.389569
											 180 1 1 -4.44089E-15 -0.777793 L15.41 125.1 a0.397861 0.388224 180 0 1 0.399237 0.388224
											 L15.81 125.49 ZM15.81 123.08 a0.397861 0.388224 180 0 1 -0.399237 0.388224 L6.47 123.47
											 a0.399237 0.389569 180 1 1 -4.44089E-15 -0.777793 L15.41 122.69 a0.399237 0.389569 180
											 0 1 0.399237 0.389569 L15.81 123.08 ZM15.81 119.57 a0.399237 0.389569 180 0 1 -0.399237
											 0.389569 L0.42 119.96 a0.399237 0.389569 180 1 1 -5.88418E-15 -0.777793 L15.41 119.18
											 a0.397861 0.388224 180 0 1 0.399237 0.388224 L15.81 119.57 Z" class="st8"/>
							</g>
						</g>
						<g id="group5279-44" transform="translate(2.1302,-1.13687E-13)">
							<title>path8</title>
							<g id="shape5280-45">
								<title>Sheet.5280</title>
								<path d="M4.93 119.8 A3.47613 3.39192 180 0 1 0.29 119.8 L0 125.43 a0.458435 0.447331 -0 0 0 0.784709
											 0.335834 L2.57 123.99 L4.38 125.78 a0.458435 0.447331 -0 0 0 0.790216 -0.326431 L4.93
											 119.8 Z" class="st9"/>
							</g>
						</g>
						<g id="group5281-47" transform="translate(0.642006,-4.90713)">
							<title>ellipse10</title>
							<g id="shape5282-48">
								<title>Sheet.5282</title>
								<ellipse cx="4.14794" cy="121.821" rx="4.14794" ry="4.06091" class="st10"/>
							</g>
						</g>
						<g id="group5283-50" transform="translate(1.64285,-5.88796)">
							<title>ellipse12</title>
							<g id="shape5284-51">
								<title>Sheet.5284</title>
								<ellipse cx="3.14709" cy="122.802" rx="3.14709" ry="3.08028" class="st11"/>
							</g>
						</g>
					</g>
				</g>
			</g>
		</g>
	</g>
</svg>
